src/lib/packages/icons/src/assets/filled/chat-heart.svg

<svg width="24" height="24" viewBox="0 0 24 24" fill="none" xmlns="http://www.w3.org/2000/svg">
<path d="M12.001 3C7.031 3 3.00197 7.02902 3.00197 11.999C3.00197 13.339 3.30205 14.619 3.83205 15.758C4.04205 16.198 4.04211 16.708 3.89211 17.178L3.05202 19.678C2.79202 20.458 3.54204 21.208 4.32204 20.948L6.82204 20.108C7.29204 19.958 7.80196 19.958 8.24196 20.168C9.38196 20.698 10.662 20.998 12.002 20.998C16.972 20.998 21.001 16.969 21.001 11.999C21 7.02902 16.971 3 12.001 3ZM15.9251 11.794C15.4031 14.463 12 16 12 16C12 16 8.59697 14.463 8.07497 11.794C7.75497 10.156 8.45398 8.509 10.231 8.5C11.555 8.494 11.999 9.81799 11.999 9.81799C11.999 9.81799 12.4431 8.493 13.7671 8.5C15.5491 8.509 16.2451 10.156 15.9251 11.794Z" fill="currentColor"/>
</svg>

<svg xmlns="http://www.w3.org/2000/svg" width="24" height="24" fill="none"><path fill="currentColor" d="M12.001 3a9 9 0 0 0-8.999 8.999c0 1.34.3 2.62.83 3.759.21.44.21.95.06 1.42l-.84 2.5c-.26.78.49 1.53 1.27 1.27l2.5-.84c.47-.15.98-.15 1.42.06 1.14.53 2.42.83 3.76.83A8.999 8.999 0 1 0 12.001 3Zm3.924 8.794C15.403 14.463 12 16 12 16s-3.403-1.537-3.925-4.206c-.32-1.638.379-3.285 2.156-3.294 1.324-.006 1.768 1.318 1.768 1.318s.444-1.325 1.768-1.318c1.782.009 2.478 1.656 2.158 3.294Z"/></svg>
